icon/hi/inbox.svg

<svg viewBox="0 0 20 20" fill="none" xmlns="http://www.w3.org/2000/svg" height="1em" width="1em">
  <path fill-rule="evenodd" clip-rule="evenodd" d="M5 3C3.89543 3 3 3.89543 3 5V15C3 16.1046 3.89543 17 5 17H15C16.1046 17 17 16.1046 17 15V5C17 3.89543 16.1046 3 15 3H5ZM5 5L15 5V12H13L12 14H8L7 12H5V5Z" fill="#4A5568"/>
</svg>

<svg width="20" height="20" fill="none" xmlns="http://www.w3.org/2000/svg"><path fill-rule="evenodd" clip-rule="evenodd" d="M5 3a2 2 0 0 0-2 2v10a2 2 0 0 0 2 2h10a2 2 0 0 0 2-2V5a2 2 0 0 0-2-2H5Zm0 2h10v7h-2l-1 2H8l-1-2H5V5Z" fill="#4A5568"/></svg>
